X:219
T:Countess of Sutherland’s Reel,The TS.219
M:C|
L:1/8
Q:1/2=90
S:Thomas Sands’ MS,1810,Lincolnshire
R:reel
N:See also version in Bb, TS.165
O:England;Lincolnshire
C:George Jenkins
Z:vmp.Ruairidh Greig, 2011
K:C
e|”tr”c2(Gc) AcGc|FcEc Ddde|c2Gc Aagf|egdf ecc:|
|:g/a//b//|c’geg fadf|egce dG Gb|c’geg fadf|egdf ec cf/a//b//|
c’geg fadf|egce dGGg|”tr”a>gab c’agf|egdf ecc|]

